!!!!SEGMENT: pl-wumfc--n57158--003_krolikiewicz-napoleon--walc.krn
!!!cenid: 18xx:4120
!!!COM: Królikiewicz, Napoleon
!!!COM-rismID: pe50050290
!!!CDT:
!!!CNT:
!!!OTL: Walc
!!!PDT:
!!!AGN:
!!!SMS-siglum: PL-Wumfc
!!!SMS-shelfmark: N57158
!!!SMS-shelfwork: 003 W
!!!SMS-variant:
!!!SMS-altvar:
!!!NIFC-rismSourceID: 1001178022
!!!NIFC-rismChildID: 1001178022
!!!NIFC-islandoraID: pl-wumfc:8167
!!!URL-pdf-islandora: https://repozytorium.nifc.pl/islandora/object/pl-wumfc%3A8167/datastream/PDF/view
!!!URL-scan: https://polish.musicsources.pl/pl/lokalizacje/galeria/druki-muzyczne/12605/1 @EN{Scan on Polish Music Sources Website} @PL{Skany w portalu Dziedzictwo Muzyki Polskiej w otwartym dostępie}
!!!IIIF:
!!!ONB-nifc:
!!!AIN: 1 piano
!!!key: C
**kern	**kern	**dynam
*part1	*part1	*part1
*staff2	*staff1	*
*I"Walc.	*I"Walc.	*
*>[A,B,B,C,C,D,D]	*>[A,B,B,C,C,D,D]	*
*>A	*>A	*
*Ipiano	*Ipiano	*
*ICklav	*ICklav	*
*clefF4	*clefG2	*
*k[]	*k[]	*
*C:	*C:	*
*M3/8	*M3/8	*
8r	8g/	ff
=1	=1	=1
8C 8CC/	8ccL 8g 8e/	.
!	!LO:TUP:b:problem:klamra łukowa	!
8r	24ccL 24g 24e/	.
.	24cc 24g 24e/	.
.	24ccJ 24g 24e/	.
8C 8CC/	8ccJ 8g 8e/	.
=2	=2	=2
4C 4CC/	4cc 4g 4e/	.
8r	8r	.
=3!|:	=3!|:	=3!|:
*>B	*>B	*
8cL 8C\	4gM\	fp
8e 8c 8G\	.	.
8eJ 8c 8G\	16cc\LL	.
.	16ee\JJ	.
=4	=4	=4
*rep	*	*
8cL 8C\	8g\	.
8e 8c 8G\	8r	.
8eJ 8c 8G\	8r	.
*Xrep	*	*
=5	=5	=5
*rep	*	*
8cL 8C\	4gM/	.
8e 8c 8G\	.	.
8eJ 8c 8G\	16cc\LL	.
.	16ee\JJ	.
*Xrep	*	*
=6	=6	=6
*rep	*	*
8cL 8C\	8g\	.
8e 8c 8G\	8r	.
8eJ 8c 8G\	8r	.
*Xrep	*	*
=7	=7	=7
*rep	*	*
8cL 8C\	4g\	.
8e 8c 8G\	.	.
8eJ 8c 8G\	16cc\LL	.
.	16ee\JJ	.
*Xrep	*	*
=8	=8	=8
*rep	*	*
8cL 8C\	4gg\	.
8e 8c 8G\	.	.
8eJ 8c 8G\	8ee\	.
*Xrep	*	*
=9	=9	=9
8GL 8GG\	16gg\LL	.
.	16ff\	.
8f 8d\	16dd\	.
.	16b\	.
8fJ 8d\	16g\	.
.	16b\JJ	.
=10	=10	=10
!LO:TX:t=P:problem:mixed beam	!	!
8c\L	4cc\	.
8C/J	.	.
8ryy	8r	.
!!LO:LB:g=original
=11:|!|:	=11:|!|:	=11:|!|:
*k[f#]	*k[f#]	*
*>C	*>C	*
8D: 8AA: 8FF#: 8DD:/	8dd\L	ff
8r	8ee 8cc#X\	.
8D 8DD/	8eeJ 8ccn\	.
=12	=12	=12
8G 8GG/	8ggL 8b\	.
8r	8aa 8ff#\	.
8G 8GG/	8bbJ 8gg\	.
=13	=13	=13
8D 8DD/	8aaL 8ff#\	.
8r	(16eee\L	.
.	16ddd\	.
8D 8DD/	16ccc\	.
.	16aa\JJ)	.
=14	=14	=14
8G 8GG\	8gg\L	.
8r	(16eee\L	.
.	16ddd\	.
8G 8GG\	16bb\	.
.	16gg\JJ)	.
=15	=15	=15
8D: 8AA: 8FF#: 8DD:/	8dd\L	.
8ryy	8ee 8cc#X\	.
8D 8DD/	8ff#J 8ccn\	.
=16	=16	=16
8G 8GG/	8ggL 8b\	.
8r	8aa 8ff#\	.
8G 8GG/	8bbJ 8gg\	.
=17	=17	=17
8D 8DD/	8aaL 8ff#\	.
8r	(16eee\L	.
.	16ddd\	.
8D 8DD/	16ccc\	.
.	16aa\JJ)	.
=18	=18	=18
!LO:TX:t=P:problem:mixed beam	!	!
.	8qff#/	.
8G\L	4gg\	.
8GG/J	.	.
=19:|!|:	=19:|!|:	=19:|!|:
*>D	*>D	*
!	!LO:TX:i:b:t=dolce	!
8cL 8C\	(16aa\LL	.
.	16gg\	.
8e 8c 8G\	16ff#\	.
.	16gg\	.
8eJ 8c 8G\	16aa\	.
.	16gg\JJ)	.
=20	=20	=20
8cL 8C\	8ccc 8ee\	.
8e 8c 8G\	8r	.
8eJ 8c 8G\	8ccc 8ee\	.
=21	=21	=21
*rep	*	*
8cL 8C\	(16ddd\LL	.
.	16ccc\	.
8e 8c 8G\	16bb\	.
.	16ccc\	.
8eJ 8c 8G\	16ddd\	.
.	16ccc\JJ)	.
*Xrep	*	*
!!LO:LB:g=original
=22	=22	=22
*rep	*	*
8cL 8C\	8eee 8gg\	.
8e 8c 8G\	8r	.
8eJ 8c 8G\	8eee 8gg\	.
*Xrep	*	*
=23	=23	=23
8GL 8GG\	8fff#L 8gg\	.
8f# 8d 8B 8G\	8r	.
8f#J 8d 8G\	16eee\L	.
.	16ddd\JJ	.
=24	=24	=24
8cL 8C\	8eeeL 8gg\	.
8e 8c 8G\	8r	.
!	!LO:N:vis=8	!
8eJ 8c 8G\	16ddd\L	.
!	!LO:N:vis=8	!
.	16ccc\JJ	.
=25	=25	=25
8GL 8GG\	(16gg\LL	.
.	16aa\	.
8f# 8d 8B 8G\	16bb\	.
.	16ccc\	.
8f#J 8d 8B 8G\	16ddd\	.
.	16bb\JJ)	.
=26	=26	=26
!LO:TX:t=P:problem:mixed beam	!	!
8c\L	4ccc\	.
8C/J	.	.
==	==	==
*-	*-	*-
!!!system-decoration: {(p1)}
!!!ENC: Andrzej Gręziak
!!!END: 2022-08-24
!!!ENC: Kamil Watkowski
!!!END: 2022-09-30
!!!RDF**kern: > = above
!!!RDF**kern: < = below
!!!YEC: Copyright 2022 Narodowy Instytut Fryderyka Chopina (https://polishscores.org)
!!!YEM: License CC-BY-4.0 (https://creativecommons.org/licenses/by/4.0)
